X: 29
T: The Snowbirds
C: words: H.G.
C: music: B.J.Relemann
%R: air, waltz
B: "The Everyday Song Book", 1927
F: http://www.library.pitt.edu/happybirthday/pdf/The_Everyday_Song_Book.pdf
Z: 2017 John Chambers <jc:trillian.mit.edu>
M: 3/4
L: 1/4
K: E
% - - - - - - - - - - - - - - -
[| E E E | F F F | G A B | B3    | E E E |
w: Ma-ny dear snow-birds come troop-ing a-long, Mak-ing the
%
   F F F | G A B | B2  B | c e c | B G B |
w: air full of twit-ter-ing song; They flut-ter and twin-kle a-
%
   A G F | G2  B | c e c | B G B | A G F | E3 |]
w: bout in the trees, And let us come tow'rd them as near as we please.
% - - - - - - - - - - - - - - -

%%sep 1 1 500
%%sep 1 1 500

